X: 5
T: High Caul Cap
R: polka
M: 2/4
L: 1/8
K: Gmaj
%%MIDI gracedivider 8
%%MIDI ratio 3 1
|:{g}A>B|{Gdc}d3e {g}f2a2|g3/2f<{g}ed/2 {g}f4|{gfg}f2e2 {gef}e2{GdG}e2|{gfg}f2e2 {gef}e2d<B|!
{Gdc}d3e {g}f2a2|g3/2f<{g}ed/2 {gfg}f2{g}e>f|{Gdc}d2{e}B2 {gBd}B2{e}A>B|{Gdc}d2{e}B2 {gBd}B2:|!
|:{gf}g2|{ag}a2g<f {gf}g2f<e|{gfg}f3/2e<{g}de/2 {g}f4|{gfg}f2e2 {gef}e2{GdG}e2|{gfg}f2e2 {gef}e2{gf}g2|!
{ag}a2g<f {gf}g2f<e|{gfg}f3/2e<{g}de/2 {gfg}f2{g}e>f|{Gdc}d2{e}B2 {gBd}B2{e}A>B|{Gdc}d2{e}B2 {gBd}B2:|!


Tune 1524	Setting 29303

